X: 1
T: The Five Fingers
R: reel
M: 4/4
L: 1/8
K: Dmaj
|:dfed BgdB|AFEF D2 D/D/D|dBAF DEED|~E3 F Ddd/d/d|
dfed BgdB|AFEF D2 D/D/D|dBAF EDCE|1 DA,B,D D2 d/d/d:|2 DA,DE FDGD||
|:ADD/D/D BDcD|dBAG FDGD|ABAF DEED|~E3 G FDGD|
ADD/D/D BDcD|dBAF DD/D/D|dBAF EDCE|1 DA,DE FDGD:|2 DA,B,D D2 d/d/d||

